flaticon/constructions/drawing.svg

<svg xmlns="http://www.w3.org/2000/svg" width="32" height="32" viewBox="0 0 24 24">
    <path d="M 18.765625 18.71875 C 18.125 19.320312 18.125 20.320312 18.765625 20.960938 C 19.085938 21.28125 19.484375 21.441406 19.886719 21.441406 C 20.285156 21.441406 20.683594 21.28125 21.003906 20.960938 C 21.644531 20.359375 21.644531 19.359375 21.003906 18.71875 C 20.40625 18.078125 19.40625 18.078125 18.765625 18.71875 Z M 20.445312 20.441406 C 20.125 20.761719 19.644531 20.761719 19.324219 20.441406 C 19.003906 20.121094 19.003906 19.640625 19.324219 19.320312 C 19.484375 19.160156 19.683594 19.078125 19.886719 19.078125 C 20.085938 19.078125 20.285156 19.160156 20.445312 19.320312 C 20.765625 19.640625 20.765625 20.121094 20.445312 20.441406 Z M 20.445312 20.441406"/>
    <path d="M 23.726562 19.199219 L 16.523438 12 L 19.363281 9.160156 L 21.046875 7.480469 L 23.484375 5.039062 C 24.164062 4.359375 24.164062 3.238281 23.484375 2.558594 L 21.445312 0.519531 C 21.125 0.199219 20.683594 0 20.203125 0 C 19.726562 0 19.285156 0.199219 18.964844 0.519531 L 12.003906 7.480469 L 4.886719 0.359375 C 4.445312 -0.078125 3.644531 -0.078125 3.203125 0.359375 L 0.363281 3.199219 C -0.113281 3.640625 -0.113281 4.398438 0.363281 4.878906 L 3.484375 8 L 5.726562 10.238281 L 7.484375 12 L 1.0625 18.421875 C 0.945312 18.472656 0.878906 18.582031 0.84375 18.71875 L 0.00390625 23.519531 C 0.00390625 23.679688 0.046875 23.800781 0.125 23.878906 C 0.203125 23.960938 0.285156 24 0.40625 24 C 0.445312 24 0.445312 24 0.484375 24 L 5.101562 23.148438 C 5.132812 23.15625 5.164062 23.160156 5.203125 23.160156 C 5.324219 23.160156 5.445312 23.121094 5.484375 23.039062 L 12.003906 16.519531 L 19.203125 23.71875 C 19.40625 23.921875 19.644531 24 19.886719 24 C 20.125 24 20.363281 23.921875 20.523438 23.71875 L 23.726562 20.519531 C 24.085938 20.160156 24.085938 19.558594 23.726562 19.199219 Z M 5.203125 22.160156 L 3.804688 20.761719 L 17.105469 7.5 L 18.484375 8.878906 Z M 19.523438 1.078125 C 19.886719 0.71875 20.523438 0.71875 20.886719 1.078125 L 22.925781 3.121094 C 23.285156 3.480469 23.285156 4.121094 22.925781 4.480469 L 20.765625 6.640625 L 17.363281 3.238281 Z M 16.804688 3.800781 L 20.203125 7.199219 L 19.085938 8.320312 L 15.683594 4.921875 Z M 7.703125 11.101562 L 8.566406 10.238281 C 8.726562 10.078125 8.726562 9.839844 8.566406 9.679688 C 8.40625 9.519531 8.164062 9.519531 8.003906 9.679688 L 7.144531 10.539062 L 6.566406 9.960938 L 7.964844 8.558594 C 8.125 8.398438 8.125 8.160156 7.964844 8 C 7.804688 7.839844 7.566406 7.839844 7.40625 8 L 6.003906 9.398438 L 5.445312 8.839844 L 6.285156 8 C 6.445312 7.839844 6.445312 7.601562 6.285156 7.441406 C 6.125 7.28125 5.886719 7.28125 5.726562 7.441406 L 4.886719 8.28125 L 4.324219 7.71875 L 5.726562 6.320312 C 5.886719 6.160156 5.886719 5.921875 5.726562 5.761719 C 5.566406 5.601562 5.324219 5.601562 5.164062 5.761719 L 3.765625 7.160156 L 3.164062 6.558594 L 4.003906 5.71875 C 4.164062 5.558594 4.164062 5.320312 4.003906 5.160156 C 3.84375 5 3.605469 5 3.445312 5.160156 L 2.605469 6 L 2.046875 5.441406 L 3.445312 4.039062 C 3.605469 3.878906 3.605469 3.640625 3.445312 3.480469 C 3.285156 3.320312 3.046875 3.320312 2.886719 3.480469 L 1.484375 4.878906 L 0.925781 4.320312 C 0.765625 4.160156 0.765625 3.921875 0.925781 3.761719 L 3.765625 0.921875 C 3.84375 0.839844 3.925781 0.800781 4.046875 0.800781 C 4.125 0.800781 4.246094 0.839844 4.324219 0.921875 L 11.445312 8.039062 L 8.046875 11.441406 Z M 15.125 5.519531 L 16.523438 6.917969 L 3.226562 20.179688 L 1.84375 18.800781 Z M 1.523438 19.601562 L 2.835938 20.914062 C 2.855469 20.957031 2.886719 21 2.925781 21.039062 L 4.371094 22.484375 L 0.925781 23.078125 Z M 23.164062 19.960938 L 19.964844 23.160156 C 19.925781 23.199219 19.804688 23.199219 19.765625 23.160156 L 15.625 19.019531 L 17.046875 17.601562 C 17.203125 17.441406 17.203125 17.199219 17.046875 17.039062 C 16.886719 16.878906 16.644531 16.878906 16.484375 17.039062 L 15.066406 18.460938 L 14.484375 17.878906 L 15.324219 17.039062 C 15.484375 16.878906 15.484375 16.640625 15.324219 16.480469 C 15.164062 16.320312 14.925781 16.320312 14.765625 16.480469 L 13.925781 17.320312 L 13.363281 16.761719 L 14.765625 15.359375 C 14.925781 15.199219 14.925781 14.960938 14.765625 14.800781 C 14.605469 14.640625 14.363281 14.640625 14.203125 14.800781 L 12.804688 16.199219 L 12.566406 15.960938 L 15.964844 12.558594 L 23.164062 19.761719 C 23.203125 19.800781 23.203125 19.921875 23.164062 19.960938 Z M 23.164062 19.960938"/>
</svg>

<svg xmlns="http://www.w3.org/2000/svg" width="32" height="32" viewBox="0 0 24 24">
    <path d="M18.766 18.719c-.641.601-.641 1.601 0 2.242.32.32.718.48 1.12.48.4 0 .798-.16 1.118-.48.64-.602.64-1.602 0-2.242-.598-.64-1.598-.64-2.238 0zm1.68 1.722c-.321.32-.801.32-1.122 0a.774.774 0 0 1 0-1.12c.16-.16.36-.243.563-.243.199 0 .398.082.558.242.32.32.32.801 0 1.121zm0 0"/>
    <path d="M23.727 19.2L16.523 12l2.84-2.84 1.684-1.68 2.437-2.44c.68-.68.68-1.802 0-2.481L21.445.519C21.125.2 20.684 0 20.203 0c-.476 0-.918.2-1.238.52l-6.961 6.96L4.887.36c-.442-.438-1.242-.438-1.684 0L.363 3.2c-.476.44-.476 1.198 0 1.679L3.484 8l2.243 2.238L7.484 12l-6.421 6.422c-.118.05-.184.16-.22.297l-.84 4.8c0 .16.044.282.122.36.078.082.16.121.281.121h.078l4.618-.852a.403.403 0 0 0 .101.012c.121 0 .242-.039.281-.12l6.52-6.52 7.2 7.199a.935.935 0 0 0 .683.281c.238 0 .476-.078.636-.281l3.204-3.2c.359-.359.359-.96 0-1.32zM5.203 22.16l-1.398-1.398L17.105 7.5l1.38 1.379zm14.32-21.082c.364-.36 1-.36 1.364 0l2.039 2.043c.36.36.36 1 0 1.36l-2.16 2.16-3.403-3.403zm-2.718 2.723l3.398 3.398-1.117 1.121-3.402-3.398zm-9.102 7.3l.863-.863a.385.385 0 0 0 0-.558.39.39 0 0 0-.562 0l-.86.86-.578-.58L7.965 8.56a.385.385 0 0 0 0-.559.385.385 0 0 0-.559 0L6.004 9.398l-.559-.558.84-.84a.385.385 0 0 0 0-.559.385.385 0 0 0-.558 0l-.84.84-.563-.562L5.727 6.32a.385.385 0 0 0 0-.558.39.39 0 0 0-.563 0L3.766 7.16l-.602-.601.84-.84a.385.385 0 0 0 0-.559.385.385 0 0 0-.559 0l-.84.84-.558-.559L3.445 4.04a.385.385 0 0 0 0-.559.385.385 0 0 0-.558 0L1.484 4.88.926 4.32a.385.385 0 0 1 0-.558l2.84-2.84A.356.356 0 0 1 4.046.8c.079 0 .2.039.278.12l7.121 7.118-3.398 3.402zm7.422-5.581l1.398 1.398L3.227 20.18 1.844 18.8zM1.523 19.602l1.313 1.312c.02.043.05.086.09.125l1.445 1.445-3.445.594zm21.641.359l-3.2 3.2c-.038.038-.16.038-.198 0l-4.141-4.141 1.422-1.418a.396.396 0 0 0 0-.563.39.39 0 0 0-.563 0l-1.418 1.422-.582-.582.84-.84a.385.385 0 0 0 0-.559.385.385 0 0 0-.558 0l-.84.84-.563-.558 1.403-1.403a.385.385 0 0 0 0-.558.39.39 0 0 0-.563 0l-1.398 1.398-.239-.238 3.399-3.402 7.2 7.203c.038.039.038.16 0 .199zm0 0"/>
</svg>
